app/public/icons/setaLeft.svg

<svg width="30" height="30" viewBox="0 0 30 30" fill="none" xmlns="http://www.w3.org/2000/svg">
<path d="M8.1875 13.7451L20.3125 1.55762C20.9375 0.995117 21.875 0.995117 22.4375 1.55762L23.875 2.99512C24.4375 3.55762 24.4375 4.49512 23.875 5.12012L14.25 14.7451L23.875 24.4326C24.4375 25.0576 24.4375 25.9951 23.875 26.5576L22.4375 27.9951C21.875 28.5576 20.9375 28.5576 20.3125 27.9951L8.1875 15.8076C7.625 15.2451 7.625 14.3076 8.1875 13.7451Z" fill="#2670E8" fill-opacity="0.6"/>
</svg>

<svg xmlns="http://www.w3.org/2000/svg" width="30" height="30" fill="none"><path fill="#2670E8" fill-opacity=".6" d="M8.188 13.745 20.313 1.558c.625-.563 1.562-.563 2.125 0l1.437 1.437c.563.563.563 1.5 0 2.125l-9.625 9.625 9.625 9.688c.563.625.563 1.562 0 2.125l-1.437 1.437c-.563.563-1.5.563-2.125 0L8.188 15.808a1.47 1.47 0 0 1 0-2.063"/></svg>
